assets/features/channel/east-asia/alipay-cn.svg

<svg width="80" height="80" viewBox="0 0 80 80" fill="none" xmlns="http://www.w3.org/2000/svg">
<g clip-path="url(#clip0_2497_22812)">
<rect width="80" height="80" rx="8" fill="#00A1E9"/>
<path d="M46.657 44.7246C49.9506 38.7589 51.1313 33.0729 51.1313 33.0729H40.0699V28.8783H53.213V27.0762H40.0699V20.7998H34.0732V27.0762H22.1108V28.8783H34.0732V33.0729H23.9129V34.875H44.5442C44.5442 35.1857 44.5442 35.1857 44.2335 35.4654C44.2335 37.5471 42.7421 40.53 41.5303 42.9535C26.3054 36.9568 21.8001 40.561 20.6194 41.1514C10.4591 48.3288 20.0291 57.3084 21.5205 56.9977C32.2711 59.3902 39.1689 54.9159 43.9538 49.2299C44.2645 49.5406 44.5442 49.5406 44.8549 49.5406C48.1484 51.3427 63.9947 58.7998 63.9947 58.7998V49.8202C61.6022 49.7892 52.9334 46.8063 46.657 44.7246ZM38.8892 47.3967C31.4011 56.9666 22.4526 53.9838 20.9612 53.3624C17.388 52.4613 16.1762 45.8742 20.6505 43.7924C28.1386 41.4 34.6946 44.1032 39.4796 46.4956C39.1689 47.1171 38.8892 47.3967 38.8892 47.3967Z" fill="white"/>
</g>
<defs>
<clipPath id="clip0_2497_22812">
<rect width="80" height="80" rx="8" fill="white"/>
</clipPath>
</defs>
</svg>

<svg xmlns="http://www.w3.org/2000/svg" width="80" height="80" fill="none" viewBox="0 0 80 80"><g clip-path="url(#a)"><rect width="80" height="80" fill="#00a1e9" rx="8"/><path fill="#fff" d="M46.657 44.725c3.294-5.966 4.474-11.652 4.474-11.652H40.07v-4.195h13.143v-1.802H40.07V20.8h-5.997v6.276H22.111v1.802h11.962v4.195h-10.16v1.802h20.631c0 .31 0 .31-.31.59 0 2.082-1.492 5.065-2.704 7.488-15.225-5.996-19.73-2.392-20.91-1.802-10.16 7.178-.59 16.157.9 15.847 10.751 2.392 17.649-2.082 22.434-7.768.31.31.59.31.9.31 3.294 1.803 19.14 9.26 19.14 9.26v-8.98c-2.392-.03-11.06-3.014-17.337-5.095m-7.768 2.672c-7.488 9.57-16.436 6.587-17.928 5.965-3.573-.9-4.785-7.488-.31-9.57 7.488-2.392 14.044.311 18.829 2.704-.311.621-.59.9-.59.9"/></g><defs><clipPath id="a"><rect width="80" height="80" fill="#fff" rx="8"/></clipPath></defs></svg>
